!!!OTL-incipit: O DU DEUTSCHLAND, ICH MUSS MARSCHIEREN
!!!ARE: Europa, Mitteleuropa, Deutschland
!!!SCT: Z0182
!!!TXL: @@DE
!!!YEM: Copyright 1995, estate of Helmut Schaffrath.
**kern	**text
*ICvox	*
*M3/4	*
*k[f#]	*
*G:	*
!LO:TX:a:t=Soldatenlied vom Jahre 1813.	!
{8g	O
8a	du
=1	=1
4.b	Deutſchland,
8b	ich
8cc	muß
8a	mar-
=2	=2
8eeL	-ſchi-
8ddJ	.
4dd}	-ren,
{8b	o
8dd	du
=3	=3
4cc	Deutſchland,
8a	.
8a	ich
8dd	muß
8cc	nun
=4	=4
4b	fort.
4r}	.
{8g	O
8a	du
=5	=5
4.b	Deutſchland,
8b	ich
8cc	muß
8a	mar-
=6	=6
8eeL	-ſchi-
8ddJ	.
4dd}	-ren,
{8b	o
8dd	du
=7	=7
4cc	Deutſchland,
8a	.
8a	ich
8dd	muß
8cc	nun
=8	=8
4b	fort.
4r}	.
=|:	=|:
{8dd	Ei-
8b	-ne
=9	=9
8bL	Ʒeit
8aJ	.
4a	lang
8ee	muß
8cc	ich
=10	=10
4cc	mei-
4b}	-den,
{8dd	ei-
8b	-ne
=11	=11
4b/	Ʒeit
4a	lang
8ee	muß
8cc	ich
=12	=12
8ccL	ſchei-
8bJ	.
4b}	-den,
{8g	o
8a	du
=13	=13
4.b	Deutſchland,
8b	ich
8cc	muß
8a	nun
=14	=14
(4ee	fort,
4dd)}	.
{8b	o
8dd	du
=15	=15
4cc	Deutſchland,
4cc	.
8dd	ich
8cc	muß
=16	=16
4b	fort.
4r}	.
==	==
!!!AGN: Soldaten - Lied
!! "Soldatenlied vom Jahre 1813"
!!!ONB: ESAC (Essen Associative Code) Database: ZUCCAL
!!!AMT: simple triple
!!!AIN: vox
!!!EED: Helmut Schaffrath
!!!EEV: 1.0
!!!GTL: III. Soldaten-, Jaeger-, Schiffer-, Fuhrmanns- und Handwerks-Lieder.
!!!URL-scan: https://www.digitale-sammlungen.de/de/view/bsb11160571?page=339
!!!ENC: Anna Maria Matuszewska
!!!EEV: 2025/01/28
*-	*-
